X: 3906
T: Le Moulin Rouge
P: Christine McWilliam
C:Drummond Cook
R:Reel (1x64)
B:RSCDS 39-6
Z:Anselm Lingnau <anselm@strathspey.org>
M:4/4
L:1/8
K:G
|:D2|"G"G2Bd edBd|gfga gfed|"C"e2fg "G"d2Bd|"Am"cBAG "D7"GFED|\
     "G"G2Bd edBd|
                  "A7"efga "D7"gfef|"Em"g2G2 "Am"AB"D7"cd|"G"B2"C"G2"G"G2:|\
  AG|"D"F2DF A2dc|"G"B2GB d2gf|
                               "A7"e2^cd efga|"D"f2d2d2 ef|\
     "Em"g2ag "Bm"f2gf|"C"egfe "G"d2cB|"A"e2E2 "A7"A2AG|"D"FG"A7"EF "D"D2 AG|
     "D"F2DF A2dc|"G"B2GB d2gf|\
                               "A7"e2^cd efga|"D"f2d2d2 ef|
     "Em"g2ag "Bm"f2gf|"C"egfe "G"d2ef|"Em"g2G2 "Am"AB"D7"cd|"G"B2"C"G2 "G"G2|]
P: Alan Grant
|:FE|"D"D2FG A2FA|d2Ad fedc|"G"B2dB "D"Adfa|"Em"gfed "A7"cAGE|\
     "D"D2FG A2FA|
                  d2Ad fedc|"Em"B2eg "A7"fdec|"D"d2"G"D2 "D"D2:|\
ag|"D"f2ed "A"e2cA|"Bm"d2ef "F#m"c2BA|
                                      "G"BdcB "D"A2FA|"E7"Eeed "A7"cAag|\
   "D"f2ed "A"e2cA|"Bm"d2ef "F#m"c2BA|"G"Bbag "A7"fdec|"D"d2"G"D2 "D"D2 ag|
   "D"f2ed "A"e2cA|"Bm"d2ef "F#m"c2BA|"G"BdcB "D"AFDF|"E7"Eeed "A7"cAGE|
   "D"D2FG A2FA|d2Ad fedc|"Em"B2eg "A7"fdec|"D"d2"G"D2 "D"D2|]
%%center Book39/3906-Le_Moulin_Rouge-AL.abc

%%sep 1 1 500
%%sep 1 1 500

